X: 12332
T: Come sweet Lass
%R: reel
B: James Oswald "The Caledonian Pocket Companion" v.1 b.1 p.33 #2
Z: 2020 John Chambers <jc:trillian.mit.edu>
M: C
L: 1/16
K: G
|: "_Brisk"\
TE4d4 {c}B6e2 | d2B2(TA2G2) A2F2(TE2D2) |\
G4 d4 {c}B6e2 | d2g2 a2(gf) g8 :|
|:\
f4 (fg)a2 d6 (ef) | g2e2d2B2 e6d2 |\
(edcB) (cBAG) F2(GA) D2c2 | B4(TA3G) G6 :|


